X:1
T: The Byron Strathspey
C:
R:Strathspey
Q: 128
K:A
M:4/4
L:1/16
|:E4|c4 c4 B3c d3B|A12 A3G|F3^E F3G A3B A3F|E12 E3A|
c4 c4 B3c d3B|A4 a4 f3g a3f|e3f e3c B3c d3B|A12 a3g|
f3^e f3g a3b a3f|e12 c4|B3^A B3c d3e d3B|c12 A4|
F3^E F3G F3A G3F|E3^D E3F E3A c3e|B3^A B3c B3d c3B|A12:|
